actions/22x22-dark/mail-meeting-request-reply.svg

<svg viewBox="0 0 22 22" xmlns="http://www.w3.org/2000/svg"><path d="m10.996094 3c-.79451 0-1.4199221.683817-1.4199221 1.4882812v8.1855468c0 .804464.6244821 1.490234 1.4199221 1.490234.795439 0 1.421875-.68577 1.421875-1.490234v-8.1855468c0-.8044642-.627366-1.4882812-1.421875-1.4882812zm.003906 12.271484c-.498799 0-.968219.192862-1.3203125.544922-.351456.351457-.5449219.818273-.5449219 1.31836 0 .500104.192863.968219.5449219 1.320312.3521095.352109.8215465.544922 1.3203125.544922.498798 0 .96822-.192862 1.320312-.544922.35211-.352109.544922-.820241.544922-1.320312 0-.50012-.19353-.96692-.544922-1.31836-.352109-.352109-.821531-.544924-1.320312-.544922z" fill="#fdbc4b"/></svg>

<svg xmlns="http://www.w3.org/2000/svg" viewBox="0 0 22 22">
 <path 
     style="fill:#fdbc4b;fill-opacity:1"
     d="M 10.996094 3 C 10.201584 3 9.5761719 3.683817 9.5761719 4.4882812 L 9.5761719 12.673828 C 9.5761719 13.478292 10.200654 14.164062 10.996094 14.164062 C 11.791533 14.164062 12.417969 13.478292 12.417969 12.673828 L 12.417969 4.4882812 C 12.417969 3.683817 11.790603 3 10.996094 3 z M 11 15.271484 C 10.501201 15.271484 10.031781 15.464346 9.6796875 15.816406 C 9.3282315 16.167863 9.1347656 16.634679 9.1347656 17.134766 C 9.1347656 17.63487 9.3276286 18.102985 9.6796875 18.455078 C 10.031797 18.807187 10.501234 19 11 19 C 11.498798 19 11.96822 18.807138 12.320312 18.455078 C 12.672422 18.102969 12.865234 17.634837 12.865234 17.134766 C 12.865234 16.634646 12.671704 16.167846 12.320312 15.816406 C 11.968203 15.464297 11.498781 15.271482 11 15.271484 z "
     />
</svg>
